Otagle3/Assets/ikonySvG/DrugaStrona.svg

<svg id="SVGRoot" width="208" height="208" version="1.1" viewBox="0 0 208 208" xmlns="http://www.w3.org/2000/svg">
 <g transform="translate(0,7)">
  <g transform="matrix(3.7795 0 0 3.7795 10.171 -6.7758)">
   <g transform="translate(-1.0884 -121.69)">
    <g transform="translate(1.6608 -59.209)">
     <g transform="translate(-.6443 -59.335)">
      <g transform="translate(-1396.8 269.89)">
       <g transform="translate(-57.972 -.024822)">
        <g transform="translate(1658.1 73.867)">
         <g transform="translate(-203.03 -103.33)">
          <flowRoot transform="matrix(.26458 0 0 .26458 -2.875 1.091)" fill="#000000" font-family="sans-serif" font-size="40px" letter-spacing="0px" word-spacing="0px" style="line-height:1.25" xml:space="preserve"><flowRegion><rect x="-85.582" y="-60.812" width="342.33" height="293.65"/></flowRegion><flowPara/></flowRoot>
          <g transform="translate(-1039.4 318.88)">
           <flowRoot transform="matrix(.26458 0 0 .26458 1036.5 -317.79)" fill="#000000" font-family="sans-serif" font-size="40px" letter-spacing="0px" word-spacing="0px" style="line-height:1.25" xml:space="preserve"><flowRegion><rect x="-105.21" y="-13.703" width="562.17" height="513.49"/></flowRegion><flowPara/></flowRoot>
           <g transform="translate(-66.134 .039287)">
            <g transform="translate(-66.173 .043409)">
             <flowRoot transform="matrix(.26458 0 0 .26458 1168.8 -317.87)" fill="#000000" font-family="sans-serif" font-size="40px" letter-spacing="0px" word-spacing="0px" style="line-height:1.25" xml:space="preserve"><flowRegion><rect x="-114.63" y="-91.434" width="675.23" height="522.91"/></flowRegion><flowPara/></flowRoot>
             <g transform="translate(-66.2 -.040316)">
              <g transform="translate(-65.918 -.60254)">
               <g transform="translate(-66.6 .14883)">
                <flowRoot fill="black" font-family="sans-serif" font-size="40px" letter-spacing="0px" word-spacing="0px" style="line-height:1.25" xml:space="preserve"><flowRegion><rect x="-24.34" y="-19.695" width="252.04" height="245.75"/></flowRegion><flowPara/></flowRoot>
                <g transform="translate(-68.678 -.48293)">
                 <flowRoot fill="black" font-family="sans-serif" font-size="40px" letter-spacing="0px" word-spacing="0px" style="line-height:1.25" xml:space="preserve"><flowRegion><rect x="-65.168" y="-26.762" width="382.37" height="335.26"/></flowRegion><flowPara/></flowRoot>
                 <g transform="translate(-63.347 .4912)">
                  <g transform="translate(529.82 -.18087)">
                   <g transform="translate(794.67 .06923)">
                    <g transform="translate(-198.36 .17569)">
                     <g transform="translate(-530.68 .043413)">
                      <g transform="translate(912.04 -.041317)">
                       <g transform="translate(132.58 -.39794)">
                        <g transform="translate(-580.62 .35866)">
                         <g transform="translate(-264.6 -.1571)">
                          <g transform="translate(463.55 .097138)">
                           <g transform="translate(-397.36 .059959)">
                            <g transform="translate(66.026 -.30592)">
                             <g transform="translate(-264.69 -.093008)">
                              <g transform="translate(734.89 179.33)">
                               <g transform="translate(-205.07 -178.97)">
                                <g transform="translate(-1081.1 -686.85)">
                                 <flowRoot fill="black" font-family="sans-serif" font-size="40px" letter-spacing="0px" word-spacing="0px" style="line-height:1.25" xml:space="preserve"><flowRegion><rect x="21" y="-71" width="223" height="308"/></flowRegion><flowPara/></flowRoot>
                                 <g transform="translate(-112.28 .55746)">
                                  <flowRoot transform="matrix(.26458 0 0 .26458 1500.7 367.6)" fill="#000000" font-family="sans-serif" font-size="40px" letter-spacing="0px" word-spacing="0px" style="line-height:1.25" xml:space="preserve"><flowRegion><rect x="-6.364" y="-2.0107" width="231.22" height="230.87"/></flowRegion><flowPara/></flowRoot>
                                  <g transform="translate(1386.8 133.57)">
                                   <g transform="translate(-1180.5 267.04)">
                                    <g transform="translate(753.05 -.28062)">
                                     <g transform="translate(747.14 .093556)">
                                      <g transform="translate(-805.88 1.4967)">
                                       <g transform="translate(-866.69 -1.7773)">
                                        <flowRoot fill="black" font-family="sans-serif" font-size="40px" letter-spacing="0px" word-spacing="0px" style="line-height:1.25" xml:space="preserve"><flowRegion><rect x="-103.94" y="-20.042" width="370.17" height="251.38"/></flowRegion><flowPara/></flowRoot>
                                        <g transform="translate(-56.372 .37418)">
                                         <rect x="1524.1" y="-31.75" width="52.951" height="52.917" fill="#db3b3b" stroke="#000" stroke-linecap="round" stroke-width=".50016" style="paint-order:fill markers stroke"/>
                                         <text transform="scale(1.0003 .99968)" x="1550.0516" y="16.869144" fill="#ffffff" font-family="sans-serif" font-size="6.352px" letter-spacing="0px" stroke-width=".26467" word-spacing="0px" style="line-height:1.25" xml:space="preserve"><tspan x="1550.0516" y="16.869144" fill="#ffffff" font-family="sans-serif" font-size="4.9389px" stroke-width=".26467" text-align="center" text-anchor="middle">Druga strona</tspan></text>
                                         <g transform="matrix(.22437 0 0 .22437 1536.3 -26.472)" fill="#fff">
                                          <path d="m105.2 16h-26.3l3.1 2.8v1.2h20v14.9c0 2.8 2.3 5.1 5.1 5.1h16.9v84h-70v-8h-4v8.5c0 1.9 1.6 3.5 3.5 3.5h71c1.9 0 3.5-1.6 3.5-3.5v-87.9zm.8 18.9v-12.8l15.4 13.9h-14.3c-.6 0-1.1-.5-1.1-1.1z"/>
                                          <path d="m78 108.5v-87.9l-22.8-20.6h-51.7c-1.9 0-3.5 1.6-3.5 3.5v105c0 1.9 1.6 3.5 3.5 3.5h71c1.9 0 3.5-1.6 3.5-3.5zm-22-102.4 15.4 13.9h-14.3c-.6 0-1.1-.5-1.1-1.1zm-52 101.9v-104h48v14.9c0 2.8 2.3 5.1 5.1 5.1h16.9v84z"/>
                                          <path d="m62 30h-46c-1.1 0-2 .9-2 2s.9 2 2 2h46c1.1 0 2-.9 2-2s-.9-2-2-2z"/>
                                          <path d="m62 40h-46c-1.1 0-2 .9-2 2s.9 2 2 2h46c1.1 0 2-.9 2-2s-.9-2-2-2z"/>
                                          <path d="m62 50h-46c-1.1 0-2 .9-2 2s.9 2 2 2h46c1.1 0 2-.9 2-2s-.9-2-2-2z"/>
                                          <path d="m62 60h-46c-1.1 0-2 .9-2 2s.9 2 2 2h46c1.1 0 2-.9 2-2s-.9-2-2-2z"/>
                                          <path d="m114 48c0-1.1-.9-2-2-2h-30v4h30c1.1 0 2-.9 2-2z"/>
                                          <path d="m82 60h30c1.1 0 2-.9 2-2s-.9-2-2-2h-30z"/>
                                          <path d="m82 70h30c1.1 0 2-.9 2-2s-.9-2-2-2h-30z"/>
                                          <path d="m82 80h30c1.1 0 2-.9 2-2s-.9-2-2-2h-30z"/>
                                         </g>
                                        </g>
                                       </g>
                                      </g>
                                     </g>
                                    </g>
                                   </g>
                                  </g>
                                 </g>
                                </g>
                               </g>
                              </g>
                             </g>
                            </g>
                           </g>
                          </g>
                         </g>
                        </g>
                       </g>
                      </g>
                     </g>
                    </g>
                   </g>
                  </g>
                 </g>
                </g>
               </g>
              </g>
             </g>
            </g>
           </g>
          </g>
         </g>
        </g>
       </g>
      </g>
     </g>
    </g>
   </g>
  </g>
 </g>
</svg>

<?xml version="1.0" encoding="UTF-8" standalone="no"?>
<svg
   xmlns:osb="http://www.openswatchbook.org/uri/2009/osb"
   xmlns:dc="http://purl.org/dc/elements/1.1/"
   xmlns:cc="http://creativecommons.org/ns#"
   xmlns:rdf="http://www.w3.org/1999/02/22-rdf-syntax-ns#"
   xmlns:svg="http://www.w3.org/2000/svg"
   xmlns="http://www.w3.org/2000/svg"
   id="svg47"
   version="1.1"
   viewBox="0 0 52.758294 52.758296"
   height="199.40143"
   width="199.40143">
  <defs
     id="defs42">
    <pattern
       id="EMFhbasepattern"
       patternUnits="userSpaceOnUse"
       width="6"
       height="6"
       x="0"
       y="0" />
    <marker
       style="overflow:visible"
       id="Arrow1Mend-5-0"
       refX="0"
       refY="0"
       orient="auto">
      <path
         transform="matrix(-0.4,0,0,-0.4,-4,0)"
         style="fill:#000000;fill-opacity:1;fill-rule:evenodd;stroke:#000000;stroke-width:1.00000003pt;stroke-opacity:1"
         d="M 0,0 5,-5 -12.5,0 5,5 Z"
         id="path1146-3-3" />
    </marker>
    <marker
       style="overflow:visible"
       id="Arrow1Mend-5-3"
       refX="0"
       refY="0"
       orient="auto">
      <path
         transform="matrix(-0.4,0,0,-0.4,-4,0)"
         style="fill:#000000;fill-opacity:1;fill-rule:evenodd;stroke:#000000;stroke-width:1.00000003pt;stroke-opacity:1"
         d="M 0,0 5,-5 -12.5,0 5,5 Z"
         id="path1146-3-9" />
    </marker>
    <marker
       orient="auto"
       refY="0"
       refX="0"
       id="Arrow1Mend-5-0-4"
       style="overflow:visible">
      <path
         id="path1146-3-3-8"
         d="M 0,0 5,-5 -12.5,0 5,5 Z"
         style="fill:#ffffff;fill-opacity:1;fill-rule:evenodd;stroke:#ffffff;stroke-width:1.00000003pt;stroke-opacity:1"
         transform="matrix(-0.4,0,0,-0.4,-4,0)" />
    </marker>
    <marker
       orient="auto"
       refY="0"
       refX="0"
       id="Arrow1Mend-5-3-8"
       style="overflow:visible">
      <path
         id="path1146-3-9-5"
         d="M 0,0 5,-5 -12.5,0 5,5 Z"
         style="fill:#ffffff;fill-opacity:1;fill-rule:evenodd;stroke:#ffffff;stroke-width:1.00000003pt;stroke-opacity:1"
         transform="matrix(-0.4,0,0,-0.4,-4,0)" />
    </marker>
    <marker
       style="overflow:visible"
       id="Arrow1Mend"
       refX="0"
       refY="0"
       orient="auto">
      <path
         transform="matrix(-0.4,0,0,-0.4,-4,0)"
         style="fill:#000000;fill-opacity:1;fill-rule:evenodd;stroke:#000000;stroke-width:1.00000003pt;stroke-opacity:1"
         d="M 0,0 5,-5 -12.5,0 5,5 Z"
         id="path1146" />
    </marker>
    <marker
       orient="auto"
       refY="0"
       refX="0"
       id="Arrow1Mend-5"
       style="overflow:visible">
      <path
         id="path1146-3"
         d="M 0,0 5,-5 -12.5,0 5,5 Z"
         style="fill:#ffffff;fill-opacity:1;fill-rule:evenodd;stroke:#ffffff;stroke-width:1.00000003pt;stroke-opacity:1"
         transform="matrix(-0.4,0,0,-0.4,-4,0)" />
    </marker>
    <marker
       style="overflow:visible"
       id="Arrow1Mstart"
       refX="0"
       refY="0"
       orient="auto">
      <path
         transform="matrix(0.4,0,0,0.4,4,0)"
         style="fill:#000000;fill-opacity:1;fill-rule:evenodd;stroke:#000000;stroke-width:1.00000003pt;stroke-opacity:1"
         d="M 0,0 5,-5 -12.5,0 5,5 Z"
         id="path1143" />
    </marker>
    <marker
       orient="auto"
       refY="0"
       refX="0"
       id="Arrow1Mstart-1"
       style="overflow:visible">
      <path
         id="path1143-7"
         d="M 0,0 5,-5 -12.5,0 5,5 Z"
         style="fill:#ffffff;fill-opacity:1;fill-rule:evenodd;stroke:#ffffff;stroke-width:1.00000003pt;stroke-opacity:1"
         transform="matrix(0.4,0,0,0.4,4,0)" />
    </marker>
    <marker
       style="overflow:visible"
       id="Arrow1Lend"
       refX="0"
       refY="0"
       orient="auto">
      <path
         transform="matrix(-0.8,0,0,-0.8,-10,0)"
         style="fill:#000000;fill-opacity:1;fill-rule:evenodd;stroke:#000000;stroke-width:1.00000003pt;stroke-opacity:1"
         d="M 0,0 5,-5 -12.5,0 5,5 Z"
         id="path1140" />
    </marker>
    <marker
       style="overflow:visible"
       id="Arrow1Lstart"
       refX="0"
       refY="0"
       orient="auto">
      <path
         transform="matrix(0.8,0,0,0.8,10,0)"
         style="fill:#000000;fill-opacity:1;fill-rule:evenodd;stroke:#000000;stroke-width:1.00000003pt;stroke-opacity:1"
         d="M 0,0 5,-5 -12.5,0 5,5 Z"
         id="path1137" />
    </marker>
    <marker
       orient="auto"
       refY="0"
       refX="0"
       id="Arrow1Lend-5"
       style="overflow:visible">
      <path
         id="path1140-4"
         d="M 0,0 5,-5 -12.5,0 5,5 Z"
         style="fill:#ffffff;fill-opacity:1;fill-rule:evenodd;stroke:#ffffff;stroke-width:1.00000003pt;stroke-opacity:1"
         transform="matrix(-0.8,0,0,-0.8,-10,0)" />
    </marker>
    <marker
       orient="auto"
       refY="0"
       refX="0"
       id="Arrow1Lstart-93"
       style="overflow:visible">
      <path
         id="path1137-7"
         d="M 0,0 5,-5 -12.5,0 5,5 Z"
         style="fill:#ffffff;fill-opacity:1;fill-rule:evenodd;stroke:#ffffff;stroke-width:1.00000003pt;stroke-opacity:1"
         transform="matrix(0.8,0,0,0.8,10,0)" />
    </marker>
    <linearGradient
       id="linearGradient4460"
       osb:paint="solid">
      <stop
         style="stop-color:#db3b3b;stop-opacity:1;"
         offset="0"
         id="stop4458" />
    </linearGradient>
  </defs>
  <metadata
     id="metadata45">
    <rdf:RDF>
      <cc:Work
         rdf:about="">
        <dc:format>image/svg+xml</dc:format>
        <dc:type
           rdf:resource="http://purl.org/dc/dcmitype/StillImage" />
        <dc:title></dc:title>
      </cc:Work>
    </rdf:RDF>
  </metadata>
  <g
     id="g8556"
     transform="translate(49.836509,-375.23204)">
    <g
       id="g5305">
      <g
         id="g5459"
         transform="translate(-1573.7246,406.82366)">
        <rect
           y="-31.749987"
           x="1524.1362"
           height="52.916668"
           width="52.950603"
           id="rect833-4-4-4-3-7-6-0-7-8-1"
           style="fill:#db3b3b;fill-opacity:1;stroke:#000000;stroke-width:0.50015801;stroke-linecap:round;stroke-miterlimit:4;stroke-dasharray:none;stroke-opacity:1;paint-order:fill markers stroke" />
        <text
           id="text983-1-5-6-98-2-6-5-2-3-5"
           y="19.088484"
           x="1550.0516"
           style="font-size:6.35203981px;line-height:1.25;font-family:voestalpine;-inkscape-font-specification:voestalpine;letter-spacing:0px;word-spacing:0px;fill:#ffffff;fill-opacity:1;stroke-width:0.26466799"
           xml:space="preserve"
           transform="scale(1.0003206,0.9996795)"><tspan
             style="font-size:6.35203981px;text-align:center;text-anchor:middle;fill:#ffffff;fill-opacity:1;stroke-width:0.26466799"
             y="19.088484"
             x="1550.0516"
             id="tspan2495-3-9-3">Druga strona</tspan></text>
        <g
           style="fill:#ffffff;fill-opacity:1"
           id="g2982"
           transform="matrix(0.22436897,0,0,0.22436897,1536.2519,-26.471549)">
          <path
             id="path2944"
             d="M 105.2,16 H 78.9 L 82,18.8 V 20 h 20 v 14.9 c 0,2.8 2.3,5.1 5.1,5.1 H 124 v 84 H 54 v -8 h -4 v 8.5 c 0,1.9 1.6,3.5 3.5,3.5 h 71 c 1.9,0 3.5,-1.6 3.5,-3.5 V 36.6 Z M 106,34.9 V 22.1 L 121.4,36 h -14.3 c -0.6,0 -1.1,-0.5 -1.1,-1.1 z"
             style="fill:#ffffff;fill-opacity:1" />
          <path
             id="path2946"
             d="M 78,108.5 V 20.6 L 55.2,0 H 3.5 C 1.6,0 0,1.6 0,3.5 v 105 c 0,1.9 1.6,3.5 3.5,3.5 h 71 c 1.9,0 3.5,-1.6 3.5,-3.5 z M 56,6.1 71.4,20 H 57.1 C 56.5,20 56,19.5 56,18.9 Z M 4,108 V 4 h 48 v 14.9 c 0,2.8 2.3,5.1 5.1,5.1 H 74 v 84 z"
             style="fill:#ffffff;fill-opacity:1" />
          <path
             id="path2948"
             d="M 62,30 H 16 c -1.1,0 -2,0.9 -2,2 0,1.1 0.9,2 2,2 h 46 c 1.1,0 2,-0.9 2,-2 0,-1.1 -0.9,-2 -2,-2 z"
             style="fill:#ffffff;fill-opacity:1" />
          <path
             id="path2950"
             d="M 62,40 H 16 c -1.1,0 -2,0.9 -2,2 0,1.1 0.9,2 2,2 h 46 c 1.1,0 2,-0.9 2,-2 0,-1.1 -0.9,-2 -2,-2 z"
             style="fill:#ffffff;fill-opacity:1" />
          <path
             id="path2952"
             d="M 62,50 H 16 c -1.1,0 -2,0.9 -2,2 0,1.1 0.9,2 2,2 h 46 c 1.1,0 2,-0.9 2,-2 0,-1.1 -0.9,-2 -2,-2 z"
             style="fill:#ffffff;fill-opacity:1" />
          <path
             id="path2954"
             d="M 62,60 H 16 c -1.1,0 -2,0.9 -2,2 0,1.1 0.9,2 2,2 h 46 c 1.1,0 2,-0.9 2,-2 0,-1.1 -0.9,-2 -2,-2 z"
             style="fill:#ffffff;fill-opacity:1" />
          <path
             id="path2956"
             d="m 114,48 c 0,-1.1 -0.9,-2 -2,-2 H 82 v 4 h 30 c 1.1,0 2,-0.9 2,-2 z"
             style="fill:#ffffff;fill-opacity:1" />
          <path
             id="path2958"
             d="m 82,60 h 30 c 1.1,0 2,-0.9 2,-2 0,-1.1 -0.9,-2 -2,-2 H 82 Z"
             style="fill:#ffffff;fill-opacity:1" />
          <path
             id="path2960"
             d="m 82,70 h 30 c 1.1,0 2,-0.9 2,-2 0,-1.1 -0.9,-2 -2,-2 H 82 Z"
             style="fill:#ffffff;fill-opacity:1" />
          <path
             id="path2962"
             d="m 82,80 h 30 c 1.1,0 2,-0.9 2,-2 0,-1.1 -0.9,-2 -2,-2 H 82 Z"
             style="fill:#ffffff;fill-opacity:1" />
        </g>
      </g>
    </g>
  </g>
</svg>
